src/assets/icons/arrowUp.svg

<?xml version="1.0" encoding="iso-8859-1"?>
<!-- Generator: Adobe Illustrator 19.0.0, SVG Export Plug-In . SVG Version: 6.00 Build 0)  -->
<svg version="1.1" id="Layer_1" xmlns="http://www.w3.org/2000/svg" xmlns:xlink="http://www.w3.org/1999/xlink" x="0px" y="0px"
	 viewBox="0 0 492.002 492.002" style="enable-background:new 0 0 492.002 492.002;" xml:space="preserve">
<g>
	<g>
		<path d="M484.136,328.473L264.988,109.329c-5.064-5.064-11.816-7.844-19.172-7.844c-7.208,0-13.964,2.78-19.02,7.844
			L7.852,328.265C2.788,333.333,0,340.089,0,347.297c0,7.208,2.784,13.968,7.852,19.032l16.124,16.124
			c5.064,5.064,11.824,7.86,19.032,7.86s13.964-2.796,19.032-7.86l183.852-183.852l184.056,184.064
			c5.064,5.06,11.82,7.852,19.032,7.852c7.208,0,13.96-2.792,19.028-7.852l16.128-16.132
			C494.624,356.041,494.624,338.965,484.136,328.473z"/>
	</g>
</g>
<g>
</g>
<g>
</g>
<g>
</g>
<g>
</g>
<g>
</g>
<g>
</g>
<g>
</g>
<g>
</g>
<g>
</g>
<g>
</g>
<g>
</g>
<g>
</g>
<g>
</g>
<g>
</g>
<g>
</g>
</svg>

<svg width="493" height="493" viewBox="0 0 493 493" fill="none" xmlns="http://www.w3.org/2000/svg">
<g clip-path="url(#clip0)">
<path d="M484.136 328.473L264.988 109.329C259.924 104.265 253.172 101.485 245.816 101.485C238.608 101.485 231.852 104.265 226.796 109.329L7.852 328.265C2.788 333.333 0 340.089 0 347.297C0 354.505 2.784 361.265 7.852 366.329L23.976 382.453C29.04 387.517 35.8 390.313 43.008 390.313C50.216 390.313 56.972 387.517 62.04 382.453L245.892 198.601L429.948 382.665C435.012 387.725 441.768 390.517 448.98 390.517C456.188 390.517 462.94 387.725 468.008 382.665L484.136 366.533C494.624 356.041 494.624 338.965 484.136 328.473Z" fill="#204051"/>
</g>
<defs>
<clipPath id="clip0">
<rect width="492.002" height="492.002" fill="white"/>
</clipPath>
</defs>
</svg>
